X:2845
T:Alakiaz
C:anon.
O:Turkey
A:Ararat
N:Rough transcription
Z:Transcribed by Frank Nordberg - http://www.musicaviva.com
F:http://abc.musicaviva.com/tunes/turkey/alakiaz.abc
M:3/4
L:1/8
K:E
E3B, EF|G4GB|AG AB GF|G4GB|
AG AB GF|E4EG|FE FG ED|E4Ac|
BA AB GF|E4EG|FE GG (3EFD|E4Ac|
BA AB GF|(3G/F/E/-E3EA|FE FG (3EFD|G2 z2 z2|]
W:
W:
W:  From Musica Viva - http://www.musicaviva.com
W:  the Internet center for free sheet music downloads.
